build/img/icons/gift.svg

<svg width="32" height="36" viewBox="0 0 32 36" fill="none" xmlns="http://www.w3.org/2000/svg">
<path d="M30.988 10.5211C24.6566 10.5236 18.3252 10.5236 11.9938 10.5236C8.32336 10.5236 4.65288 10.5211 0.982413 10.5211C0.402345 10.5211 0 10.9259 0 11.5085C0 13.3622 0 15.2135 0 17.0672C0 17.1462 0.00246837 17.2277 0.019747 17.3067C0.113545 17.7534 0.478865 18.0496 0.947856 18.057C1.25393 18.062 1.55754 18.057 1.87596 18.057C1.87843 18.1212 1.88337 18.1706 1.88337 18.22C1.88337 19.2986 1.88584 20.3798 1.88584 21.4585C1.88584 25.9633 1.88337 30.4656 1.88584 34.9703C1.88584 35.0888 1.90065 35.2147 1.94261 35.3233C2.09071 35.7257 2.42147 35.938 2.88059 35.938C5.80808 35.938 8.73558 35.938 11.6606 35.938C17.4835 35.938 23.3089 35.938 29.1317 35.9355C29.2305 35.9355 29.3342 35.9281 29.4304 35.9034C29.8624 35.7898 30.1142 35.4221 30.1166 34.9259C30.1166 29.3721 30.1166 23.8182 30.1166 18.2669C30.1166 18.2027 30.1166 18.141 30.1166 18.0595C30.403 18.0595 30.6671 18.0645 30.9337 18.057C31.062 18.0546 31.1978 18.0546 31.3212 18.0176C31.7532 17.8917 32 17.5436 32 17.082C32 15.2234 32 13.3671 32 11.5085C32 10.916 31.5927 10.5211 30.988 10.5211ZM1.89818 16.1638C1.89818 14.9123 1.89818 13.6707 1.89818 12.4193C6.28201 12.4193 10.6584 12.4193 15.0472 12.4193C15.0472 13.6633 15.0472 14.9049 15.0472 16.1638C10.656 16.1638 6.28201 16.1638 1.89818 16.1638ZM15.0472 34.0472C11.2854 34.0472 7.53595 34.0472 3.77661 34.0472C3.77661 28.7204 3.77661 23.4011 3.77661 18.0694C7.53101 18.0694 11.2829 18.0694 15.0472 18.0694C15.0472 23.3912 15.0472 28.7106 15.0472 34.0472ZM28.2234 34.0398C24.4764 34.0398 20.7294 34.0398 16.9627 34.0398C16.9627 28.7254 16.9627 23.4035 16.9627 18.0645C20.7171 18.0645 24.4641 18.0645 28.2234 18.0645C28.2234 23.3912 28.2234 28.7106 28.2234 34.0398ZM30.1043 16.1712C30.0426 16.1712 29.9883 16.1712 29.9364 16.1712C25.6637 16.1712 21.3934 16.1712 17.1206 16.1737C16.9849 16.1737 16.9429 16.1416 16.9429 16.0009C16.9479 14.8654 16.9454 13.7325 16.9454 12.597C16.9454 12.5427 16.9454 12.4884 16.9454 12.4193C21.344 12.4193 25.718 12.4193 30.1043 12.4193C30.1043 13.6683 30.1043 14.9099 30.1043 16.1712ZM7.22493 8.75622C7.83709 9.14128 8.54057 9.29432 9.23912 9.43255C10.6609 9.71641 12.1024 9.82749 13.5489 9.86699C15.5162 9.92129 17.486 9.9361 19.4508 9.82009C20.7442 9.74357 22.0327 9.62262 23.2965 9.31407C23.8494 9.17831 24.3925 9.0154 24.8738 8.69944C26.4857 7.64298 27.2879 5.66088 26.8732 3.77751C26.3301 1.30666 23.958 -0.297779 21.4724 0.131718C20.2752 0.339061 19.32 0.941344 18.5943 1.92129C17.8661 2.90617 17.2712 3.96757 16.7208 5.05859C16.4764 5.54239 16.2493 6.0336 15.9975 6.55196C15.8667 6.27303 15.7482 6.01879 15.6297 5.76702C15.0571 4.57232 14.4474 3.39491 13.6847 2.30636C13.3119 1.77565 12.917 1.25976 12.3764 0.884572C10.5646 -0.376767 8.01481 -0.15955 6.45233 1.39799C5.35637 2.48901 4.87751 3.817 5.06757 5.3548C5.24776 6.82101 5.97346 7.96634 7.22493 8.75622ZM17.95 6.86051C18.5177 5.66828 19.1102 4.49087 19.8507 3.39491C19.9445 3.25668 20.0457 3.12832 20.1444 2.99256C21.0898 1.67198 23.1904 1.58806 24.353 2.87161C25.5032 4.14036 25.2761 6.13974 23.8741 7.09747C23.5779 7.29988 23.2397 7.39367 22.8991 7.4776C22.05 7.68741 21.1811 7.79355 20.3123 7.85773C19.4113 7.92437 18.5079 7.95893 17.6069 8.00583C17.5575 8.0083 17.5082 8.00583 17.4267 8.00583C17.6069 7.60595 17.7748 7.23076 17.95 6.86051ZM9.89571 1.95831C10.8164 2.01015 11.5076 2.45939 12.0284 3.21719C12.5887 4.03422 13.0774 4.89321 13.5168 5.77689C13.8624 6.46803 14.1808 7.17152 14.5091 7.87007C14.5264 7.90956 14.5412 7.94906 14.5659 8.01077C14.129 7.99349 13.7143 7.98115 13.2996 7.9614C12.016 7.90216 10.735 7.80836 9.47115 7.55659C9.1626 7.49488 8.84912 7.42576 8.55785 7.30728C7.59272 6.90987 7.07436 6.14715 6.93613 5.13758C6.6967 3.3801 8.12095 1.85711 9.89571 1.95831Z" fill="#4DA82F"/>
</svg>

<svg width="32" height="36" fill="none" xmlns="http://www.w3.org/2000/svg"><path d="M30.988 10.521c-6.331.003-12.663.003-18.994.003-3.67 0-7.341-.003-11.012-.003-.58 0-.982.405-.982.987v5.56c0 .078.002.16.02.239.094.446.459.743.928.75.306.005.61 0 .928 0 .002.064.007.114.007.163l.003 3.239c0 4.504-.003 9.007 0 13.511 0 .119.015.245.057.353.148.403.478.615.938.615h8.78c5.822 0 11.648 0 17.47-.003.1 0 .203-.007.3-.032.431-.113.683-.48.686-.977V18.06c.286 0 .55.005.817-.003.128-.002.264-.002.387-.04.432-.125.679-.473.679-.935v-5.574c0-.592-.407-.987-1.012-.987zm-29.09 5.643v-3.745h13.15v3.745H1.897zm13.15 17.883H3.776V18.07h11.27v15.978zm13.175-.007h-11.26V18.064h11.26V34.04zm1.881-17.869h-.168c-4.272 0-8.543 0-12.815.003-.136 0-.178-.032-.178-.173.005-1.136.002-2.269.002-3.404v-.178h13.16v3.752zM7.224 8.756c.613.385 1.317.538 2.015.677 1.422.283 2.863.394 4.31.434 1.967.054 3.937.07 5.902-.047 1.293-.076 2.582-.197 3.846-.506.552-.136 1.095-.299 1.577-.615a4.708 4.708 0 002-4.921A4.71 4.71 0 0021.471.132c-1.197.207-2.152.81-2.878 1.79-.728.984-1.323 2.046-1.873 3.137-.245.483-.472.975-.723 1.493l-.368-.785c-.573-1.195-1.183-2.372-1.945-3.46-.373-.531-.768-1.047-1.309-1.422-1.811-1.262-4.361-1.045-5.924.513-1.096 1.091-1.574 2.419-1.384 3.957.18 1.466.905 2.611 2.157 3.401zM17.95 6.861c.568-1.193 1.16-2.37 1.9-3.466.095-.138.196-.267.294-.402.946-1.321 3.046-1.405 4.209-.121 1.15 1.268.923 3.268-.479 4.225-.296.203-.634.297-.975.38-.849.21-1.718.317-2.587.38-.9.067-1.804.102-2.705.149-.05.002-.099 0-.18 0 .18-.4.348-.775.523-1.145zM9.896 1.958c.92.052 1.612.501 2.132 1.26a21.2 21.2 0 011.489 2.559c.345.691.664 1.395.992 2.093l.057.14c-.437-.017-.852-.029-1.266-.049-1.284-.059-2.565-.153-3.829-.404a5.048 5.048 0 01-.913-.25c-.965-.397-1.484-1.16-1.622-2.17-.24-1.757 1.185-3.28 2.96-3.179z" fill="#4DA82F"/></svg>
